X:125
T:Seo Uileo Thoil
M:4/4
L:1/4
Q:1/8=112
R:Air
K:G major
"G"Bd "Bm"fe/f/|"C"g>ag/f/e/d/|"Em"e/f/g/f/ e/d/c/B/|"D"A4|"G"Bd "Bm"fe/f/|"C"g>a g/f/e/d/|"Em"e/f/g/f/ e/d/c/B/|"D"AA/G/ "G"G2|!
"Am/G"GG A>A|"Bm"d/e/d/c/ BB/A/|"Em"GG "D"A2|"Bm"d/e/d/c/ B>A|"G"GG "D"A2|"Em"B/c/B/A/ Bd|"C"e/f/g/f/ "Am"e/d/c/B/|"D"AA/G/ "G"G2|]

